_includes/icons/ios-document-with-a-check-mark.svg

<svg fill="#666" height="50" viewBox="0 0 50 50" width="50" xmlns="http://www.w3.org/2000/svg"><path d="m4 0v48h24c.359375.003906.695313-.183594.878906-.496094.179688-.3125.179688-.695312 0-1.007812-.183593-.3125-.519531-.5-.878906-.496094h-22v-44h18v14h14v19c-.003906.359375.183594.695313.496094.878906.3125.179688.695312.179688 1.007812 0 .3125-.183593.5-.519531.496094-.878906v-20.40625l-.28125-.3125-14-14-.3125-.28125zm22 3.4375 10.5625 10.5625h-10.5625zm21.6875 24.09375-.53125.8125-11.65625 18.125-7.8125-7.09375-.75-.6875-1.34375 1.46875.71875.6875 8.71875 7.90625.875.78125.625-1 12.3125-19.09375.53125-.84375z"/></svg>

<svg xmlns="http://www.w3.org/2000/svg" viewBox="0 0 50 50" width="50" height="50" fill="#666"><path d="M 4 0 L 4 48 L 28 48 C 28.359375 48.003906 28.695313 47.816406 28.878906 47.503906 C 29.058594 47.191406 29.058594 46.808594 28.878906 46.496094 C 28.695313 46.183594 28.359375 45.996094 28 46 L 6 46 L 6 2 L 24 2 L 24 16 L 38 16 L 38 35 C 37.996094 35.359375 38.183594 35.695313 38.496094 35.878906 C 38.808594 36.058594 39.191406 36.058594 39.503906 35.878906 C 39.816406 35.695313 40.003906 35.359375 40 35 L 40 14.59375 L 39.71875 14.28125 L 25.71875 0.28125 L 25.40625 0 Z M 26 3.4375 L 36.5625 14 L 26 14 Z M 47.6875 27.53125 L 47.15625 28.34375 L 35.5 46.46875 L 27.6875 39.375 L 26.9375 38.6875 L 25.59375 40.15625 L 26.3125 40.84375 L 35.03125 48.75 L 35.90625 49.53125 L 36.53125 48.53125 L 48.84375 29.4375 L 49.375 28.59375 Z"/></svg>
